images/wp.svg

<svg width="20" height="21" viewBox="0 0 20 21" fill="none" xmlns="http://www.w3.org/2000/svg">
<path d="M17.0045 3.40625C15.1339 1.53125 12.6428 0.5 9.99553 0.5C4.53127 0.5 0.0848326 4.94643 0.0848326 10.4107C0.0848326 12.1563 0.54018 13.8616 1.40624 15.3661L0 20.5L5.25447 19.1205C6.7009 19.9107 8.33035 20.3259 9.99109 20.3259H9.99553C15.4553 20.3259 20 15.8795 20 10.4152C20 7.76785 18.875 5.28126 17.0045 3.40625ZM9.99553 18.6562C8.5134 18.6562 7.0625 18.2589 5.79912 17.5089L5.49998 17.3304L2.38393 18.1473L3.2143 15.1071L3.01786 14.7946C2.19197 13.4821 1.75892 11.9687 1.75892 10.4107C1.75892 5.87055 5.45535 2.17412 10 2.17412C12.2009 2.17412 14.2679 3.03126 15.8214 4.58927C17.375 6.14731 18.3304 8.21428 18.3259 10.4152C18.3259 14.9598 14.5357 18.6562 9.99553 18.6562ZM14.5134 12.4866C14.2679 12.3616 13.0491 11.7634 12.8214 11.683C12.5938 11.5982 12.4286 11.558 12.2634 11.808C12.0982 12.058 11.625 12.6116 11.4777 12.7812C11.3348 12.9464 11.1875 12.9687 10.942 12.8437C9.4866 12.1161 8.53127 11.5446 7.57143 9.89732C7.31696 9.45984 7.82589 9.49109 8.2991 8.54464C8.37946 8.37948 8.3393 8.23662 8.2768 8.11159C8.21427 7.9866 7.71876 6.76785 7.5134 6.27231C7.31249 5.79019 7.10713 5.85716 6.95536 5.84821C6.81251 5.8393 6.64731 5.8393 6.48216 5.8393C6.31696 5.8393 6.04911 5.90179 5.82142 6.14731C5.59376 6.39731 4.95536 6.99554 4.95536 8.21428C4.95536 9.43303 5.84375 10.6116 5.96428 10.7768C6.08927 10.942 7.70981 13.442 10.1964 14.5179C11.7679 15.1964 12.3839 15.2544 13.1696 15.1384C13.6473 15.067 14.6339 14.5402 14.8393 13.9598C15.0446 13.3795 15.0446 12.8839 14.9821 12.7812C14.9241 12.6696 14.7589 12.6071 14.5134 12.4866Z" fill="url(#paint0_linear_79_1632)"/>
<defs>
<linearGradient id="paint0_linear_79_1632" x1="12.8216" y1="4.16991" x2="7.67817" y2="16.8435" gradientUnits="userSpaceOnUse">
<stop offset="0.1177" stop-color="#7ACA37"/>
<stop offset="0.2561" stop-color="#70C53A"/>
<stop offset="0.4886" stop-color="#56B641"/>
<stop offset="0.7848" stop-color="#2C9F4E"/>
<stop offset="1" stop-color="#098C58"/>
</linearGradient>
</defs>
</svg>

<svg width="20" height="21" fill="none" xmlns="http://www.w3.org/2000/svg"><path d="M17.005 3.406A9.836 9.836 0 0 0 9.995.5C4.532.5.086 4.946.086 10.41c0 1.746.455 3.452 1.321 4.956L0 20.5l5.254-1.38a9.88 9.88 0 0 0 4.737 1.206h.005c5.46 0 10.004-4.447 10.004-9.91 0-2.648-1.125-5.135-2.995-7.01Zm-7.01 15.25A8.223 8.223 0 0 1 5.8 17.51L5.5 17.33l-3.116.817.83-3.04-.196-.312a8.21 8.21 0 0 1-1.26-4.384c0-4.54 3.697-8.237 8.242-8.237 2.2 0 4.268.857 5.821 2.415 1.554 1.558 2.51 3.625 2.505 5.826 0 4.545-3.79 8.241-8.33 8.241Zm4.518-6.17c-.245-.124-1.464-.723-1.692-.803-.227-.085-.392-.125-.558.125-.165.25-.638.804-.785.973-.143.165-.29.188-.536.063-1.455-.728-2.41-1.3-3.37-2.947-.255-.437.254-.406.727-1.352.08-.166.04-.308-.022-.433-.063-.125-.558-1.344-.764-1.84-.2-.482-.406-.415-.558-.424-.142-.009-.308-.009-.473-.009a.917.917 0 0 0-.66.308c-.228.25-.867.849-.867 2.067 0 1.219.889 2.398 1.01 2.563.124.165 1.745 2.665 4.231 3.74 1.572.68 2.188.737 2.974.621.477-.071 1.464-.598 1.67-1.178.205-.58.205-1.076.142-1.179-.058-.111-.223-.174-.469-.294Z" fill="url(#a)"/><defs><linearGradient id="a" x1="12.822" y1="4.17" x2="7.678" y2="16.843" gradientUnits="userSpaceOnUse"><stop offset=".118" stop-color="#7ACA37"/><stop offset=".256" stop-color="#70C53A"/><stop offset=".489" stop-color="#56B641"/><stop offset=".785" stop-color="#2C9F4E"/><stop offset="1" stop-color="#098C58"/></linearGradient></defs></svg>
